X:300
T:Planxty Barbara Denz
M:C|
C:© Paul Gitlitz 2011
K:Bm
"Bm"B3d f2ed|"F#m"cA (3AAA {g}fe dc|"Bm"B3d f2ed|"A"ca (3aaa fdec|!
"Bm"B3d f2ed|"F#m"cA (3AAA "A"EAdc|"G"BG (3GGG BGBd|1"A"cded "F#m"cAFA:|2"A"cded "F#m"cABA|!
|:"Bm"F2FE FEDC|"Bm"DCDE FA{c}BA|"D"A2{cB}AG AGFE|FEDC "Bm"B,2A,2|!
"Bm"F2FE FEDE|"F#m"FABc "Bm"d3e|"D"fd (3ddd "A"ec (3ccc|1"Dsus"dcBA "G"B2G2:|2"Dsus"dcBA "G"B4|]
